client/public/img/player/player-hands-outfitFireball.svg

<?xml version="1.0" encoding="UTF-8" standalone="no"?>
<svg
   width="77"
   height="77"
   viewBox="0 0 77 77"
   fill="none"
   version="1.1"
   id="svg4"
   sodipodi:docname="player-hands-outfitFireball.svg"
   inkscape:version="1.4.2 (f4327f4, 2025-05-13)"
   xmlns:inkscape="http://www.inkscape.org/namespaces/inkscape"
   xmlns:sodipodi="http://sodipodi.sourceforge.net/DTD/sodipodi-0.dtd"
   xmlns="http://www.w3.org/2000/svg"
   xmlns:svg="http://www.w3.org/2000/svg">
  <sodipodi:namedview
     id="namedview4"
     pagecolor="#ffffff"
     bordercolor="#000000"
     borderopacity="0.25"
     inkscape:showpageshadow="2"
     inkscape:pageopacity="0.0"
     inkscape:pagecheckerboard="0"
     inkscape:deskcolor="#d1d1d1"
     inkscape:zoom="3.5493087"
     inkscape:cx="-40.853026"
     inkscape:cy="34.513763"
     inkscape:window-width="1920"
     inkscape:window-height="991"
     inkscape:window-x="-9"
     inkscape:window-y="-9"
     inkscape:window-maximized="1"
     inkscape:current-layer="svg4" />
  <mask
     id="mask0"
     mask-type="alpha"
     maskUnits="userSpaceOnUse"
     x="0"
     y="0"
     width="77"
     height="77">
    <rect
       x="0.564819"
       y="76.6906"
       width="76"
       height="76"
       transform="rotate(-90 0.564819 76.6906)"
       fill="#C4C4C4"
       id="rect1" />
  </mask>
  <g
     mask="url(#mask0)"
     id="g3"
     transform="rotate(89.515787,38.564756,38.69055)">
    <path
       d="m 8.66534,35.7726 c 1.239,18.371 19.76746,32.4579 31.89926,35.3408 0,-18.4903 25.017,-14.4647 27.7273,-35.3408 C 71.0022,14.8964 52.8045,5.94947 38.4786,6.24771 24.1528,6.54594 7.1166,12.8088 8.66534,35.7726 Z"
       fill="#ff0000"
       id="path1" />
    <path
       d="m 8.66534,35.7726 c 1.239,18.371 19.76746,32.4579 31.89926,35.3408 0,-18.4903 25.017,-14.4647 27.7273,-35.3408 C 71.0022,14.8964 52.8045,5.94947 38.4786,6.24771 24.1528,6.54594 7.1166,12.8088 8.66534,35.7726 Z"
       fill="url(#paint0_linear)"
       id="path2"
       style="fill:url(#paint0_linear)" />
    <path
       fill-rule="evenodd"
       clip-rule="evenodd"
       d="m 46.1143,76.6905 v -6.8922 c 0,-3.0853 0.979,-4.9267 2.4518,-6.4696 1.7422,-1.8252 4.1978,-3.2815 7.6789,-5.3097 l 0.1532,-0.0893 C 62.9303,54.1247 72.0786,48.7957 73.7954,35.8186 75.4073,23.6346 70.7126,14.4613 63.2441,8.58841 56.0446,2.92712 46.5722,0.531052 38.3628,0.698755 30.6047,0.857249 21.4179,2.58825 14.2496,7.96177 6.73017,13.5985 2.24441,22.6327 3.12763,35.4839 3.8671,46.2436 9.71848,55.3847 16.6449,62.047 23.5418,68.6809 32.0737,73.4164 39.2812,75.0971 Z M 24.4148,54.2679 C 18.7344,48.8041 14.702,42.0193 14.2025,34.751 c -0.6656,-9.6837 2.5924,-14.99 6.7853,-18.1331 4.544,-3.4063 11.0383,-4.8946 17.606,-5.0288 6.1165,-0.1249 12.9059,1.7226 17.7092,5.4996 4.5342,3.5655 7.5832,9.0252 6.4848,17.3275 -0.98,7.4075 -5.5648,10.3651 -12.2096,14.2365 -0.1448,0.0844 -0.2914,0.1697 -0.4398,0.2559 -3.0394,1.7676 -6.7813,3.9437 -9.6733,6.9734 -1.7929,1.8783 -3.2456,4.054 -4.199,6.6086 -3.8584,-1.8132 -8.0908,-4.6056 -11.8513,-8.2227 z"
       fill="#bb2b10"
       id="path3" />
  </g>
  <defs
     id="defs4">
    <linearGradient
       id="paint0_linear"
       x1="38.5648"
       y1="67.3851"
       x2="38.5648"
       y2="6.24055"
       gradientUnits="userSpaceOnUse">
      <stop
         offset="0.135417"
         stop-color="#FFCD1A"
         id="stop3" />
      <stop
         offset="1"
         stop-color="#FF831A"
         stop-opacity="0"
         id="stop4" />
    </linearGradient>
  </defs>
</svg>

<svg width="77" height="77" viewBox="0 0 77 77" fill="none" xmlns="http://www.w3.org/2000/svg">
<mask id="mask0" mask-type="alpha" maskUnits="userSpaceOnUse" x="0" y="0" width="77" height="77">
<rect x="0.564819" y="76.6906" width="76" height="76" transform="rotate(-90 0.564819 76.6906)" fill="#C4C4C4"/>
</mask>
<g mask="url(#mask0)">
<path d="M8.66534 35.7726C9.90434 54.1436 28.4328 68.2305 40.5646 71.1134C40.5646 52.6231 65.5816 56.6487 68.2919 35.7726C71.0022 14.8964 52.8045 5.94947 38.4786 6.24771C24.1528 6.54594 7.1166 12.8088 8.66534 35.7726Z" fill="#FF0000"/>
<path d="M8.66534 35.7726C9.90434 54.1436 28.4328 68.2305 40.5646 71.1134C40.5646 52.6231 65.5816 56.6487 68.2919 35.7726C71.0022 14.8964 52.8045 5.94947 38.4786 6.24771C24.1528 6.54594 7.1166 12.8088 8.66534 35.7726Z" fill="url(#paint0_linear)"/>
<path fill-rule="evenodd" clip-rule="evenodd" d="M46.1143 76.6905L46.1143 69.7983C46.1143 66.713 47.0933 64.8716 48.5661 63.3287C50.3083 61.5035 52.7639 60.0472 56.245 58.019L56.3982 57.9297C62.9303 54.1247 72.0786 48.7957 73.7954 35.8186C75.4073 23.6346 70.7126 14.4613 63.2441 8.58841C56.0446 2.92712 46.5722 0.531052 38.3628 0.698755C30.6047 0.857249 21.4179 2.58825 14.2496 7.96177C6.73017 13.5985 2.24441 22.6327 3.12763 35.4839C3.8671 46.2436 9.71848 55.3847 16.6449 62.047C23.5418 68.6809 32.0737 73.4164 39.2812 75.0971L46.1143 76.6905ZM24.4148 54.2679C18.7344 48.8041 14.702 42.0193 14.2025 34.751C13.5369 25.0673 16.7949 19.761 20.9878 16.6179C25.5318 13.2116 32.0261 11.7233 38.5938 11.5891C44.7103 11.4642 51.4997 13.3117 56.303 17.0887C60.8372 20.6542 63.8862 26.1139 62.7878 34.4162C61.8078 41.8237 57.223 44.7813 50.5782 48.6527C50.4334 48.7371 50.2868 48.8224 50.1384 48.9086C47.099 50.6762 43.3571 52.8523 40.4651 55.882C38.6722 57.7603 37.2195 59.936 36.2661 62.4906C32.4077 60.6774 28.1753 57.885 24.4148 54.2679Z" fill="#BB2B10"/>
</g>
<defs>
<linearGradient id="paint0_linear" x1="38.5648" y1="67.3851" x2="38.5648" y2="6.24055" gradientUnits="userSpaceOnUse">
<stop offset="0.135417" stop-color="#FFCD1A"/>
<stop offset="1" stop-color="#FF831A" stop-opacity="0"/>
</linearGradient>
</defs>
</svg>
